usr/share/icons/biglinux-icons-material-dark/22/actions/mail-forwarded-replied.svg

<svg xmlns="http://www.w3.org/2000/svg" viewBox="0 0 22 22">
  <defs id="defs3051">
    <style type="text/css" id="current-color-scheme">
      .ColorScheme-Text {
        color:#dedede;
      }
      </style>
  </defs>
 <path 
    style="fill:currentColor;fill-opacity:1;stroke:none" 
    d="M 3 3 L 3 4 L 3 5 L 3 6 L 1 9 L 1 10 L 1 11.400391 L 1 12 L 1 13 L 2 13 L 2 12 L 2 11 L 2 10.400391 L 2 10 L 2.4003906 10 L 3 10 L 4.078125 10 L 11 13.996094 L 17.921875 10 L 18 10 L 19 10 L 20 10 L 20 10.400391 L 20 11 L 20 12 L 21 12 L 21 11.400391 L 21 9.9863281 L 21 9 L 19 6 L 19 3 L 4 3 L 3 3 z M 4 4 L 18 4 L 18 5 L 18 8.7988281 L 11 12.839844 L 4 8.7988281 L 4 5 L 4 4 z M 5 5 L 5 5.9863281 L 4.9863281 6 L 5 6 L 17 6 L 17.013672 6 L 17 5.9863281 L 17 5 L 5 5 z M 5 7 L 5 8 L 12 8 L 12 7 L 5 7 z M 17.707031 12 L 17 12.707031 L 19.292969 15 L 15 15 L 15 16 L 19.292969 16 L 17 18.292969 L 17.707031 19 L 21 15.707031 L 21.207031 15.5 L 21 15.292969 L 17.707031 12 z M 4 13 L 1 16 L 4 19 L 4 17 L 5 17 L 6 17 L 6 15 L 5 15 L 4 15 L 4 13 z M 7 18 L 7 19 L 8 19 L 14 19 L 14 18 L 7 18 z "
    class="ColorScheme-Text"
    />  
</svg>

<svg xmlns="http://www.w3.org/2000/svg" viewBox="0 0 22 22">
<defs id="defs3051">
<style id="current-color-scheme" type="text/css">
.ColorScheme-Text{color:#dedede}
</style>
</defs>
<path d="M3 3v3L1 9v4h1v-3h2.078L11 13.996 17.922 10H20v2h1V9l-2-3V3zm1 1h14v4.799l-7 4.04L4 8.8zm1 1v.986L4.986 6h12.028L17 5.986V5zm0 2v1h7V7zm12.707 5-.707.707L19.293 15H15v1h4.293L17 18.293l.707.707L21 15.707l.207-.207-.207-.207zM4 13l-3 3 3 3v-2h2v-2H4zm3 5v1h7v-1z" class="ColorScheme-Text" style="fill:currentColor;fill-opacity:1;stroke:none"/>
</svg>
